X: 15171
T: Gilderoy
R: hornpipe
M: 4/4
K: Aminor
L: 1/8
|:E2|A2 AB cBcd|efec d2cd|ea^ga ecdB|c2A2A2:|
ef|g2ga gfef|gfecd2cd|edcB ABcA|B^GEEE2EG|
A^GAB cBcd|efecd2cd|ea^ga ecdB|c2A2A2||

